icons/jira-light.svg

<svg width="256" height="256" viewBox="0 0 256 256" fill="none" xmlns="http://www.w3.org/2000/svg">
<path d="M196 0H60C26.8629 0 0 26.8629 0 60V196C0 229.137 26.8629 256 60 256H196C229.137 256 256 229.137 256 196V60C256 26.8629 229.137 0 196 0Z" fill="#F4F2ED"/>
<path d="M218.011 41.5669H123.418C123.418 52.8917 127.917 63.7527 135.925 71.7606C143.933 79.7685 154.794 84.2673 166.119 84.2673H183.544V101.091C183.559 124.653 202.655 143.749 226.216 143.765V49.7728C226.216 45.2421 222.544 41.5669 218.011 41.5669Z" fill="#2684FF"/>
<path d="M171.207 88.6987H76.6152C76.6299 112.26 95.7258 131.357 119.288 131.372H136.713V148.25C136.743 171.811 155.852 190.895 179.413 190.895V96.9061C179.413 92.3739 175.739 88.6987 171.207 88.6987Z" fill="url(#paint0_linear_424_243)"/>
<path d="M124.376 135.804H29.7834C29.7834 159.387 48.9017 178.504 72.4838 178.504H89.9634V195.327C89.9788 218.867 109.042 237.955 132.582 238V144.01C132.582 139.478 128.908 135.804 124.376 135.804Z" fill="url(#paint1_linear_424_243)"/>
<defs>
<linearGradient id="paint0_linear_424_243" x1="25806.6" y1="135.749" x2="15602" y2="12061.3" gradientUnits="userSpaceOnUse">
<stop offset="0.18" stop-color="#0052CC"/>
<stop offset="1" stop-color="#2684FF"/>
</linearGradient>
<linearGradient id="paint1_linear_424_243" x1="26451.3" y1="268.772" x2="14647.3" y2="13275.8" gradientUnits="userSpaceOnUse">
<stop offset="0.18" stop-color="#0052CC"/>
<stop offset="1" stop-color="#2684FF"/>
</linearGradient>
</defs>
</svg>

<svg xmlns="http://www.w3.org/2000/svg" width="256" height="256" fill="none"><path fill="#F4F2ED" d="M196 0H60C26.863 0 0 26.863 0 60v136c0 33.137 26.863 60 60 60h136c33.137 0 60-26.863 60-60V60c0-33.137-26.863-60-60-60"/><path fill="#2684FF" d="M218.011 41.567h-94.593a42.7 42.7 0 0 0 42.701 42.7h17.425v16.824c.015 23.562 19.111 42.658 42.672 42.674V49.773a8.205 8.205 0 0 0-8.205-8.206"/><path fill="url(#paint0_linear_424_243)" d="M171.207 88.699H76.615c.015 23.561 19.11 42.658 42.673 42.673h17.425v16.878c.03 23.561 19.139 42.645 42.7 42.645V96.906a8.207 8.207 0 0 0-8.206-8.207"/><path fill="url(#paint1_linear_424_243)" d="M124.376 135.804H29.783c0 23.583 19.119 42.7 42.7 42.7h17.48v16.823c.016 23.54 19.079 42.628 42.619 42.673v-93.99a8.206 8.206 0 0 0-8.206-8.206"/><defs><linearGradient id="paint0_linear_424_243" x1="25806.6" x2="15602" y1="135.749" y2="12061.3" gradientUnits="userSpaceOnUse"><stop offset=".18" stop-color="#0052CC"/><stop offset="1" stop-color="#2684FF"/></linearGradient><linearGradient id="paint1_linear_424_243" x1="26451.3" x2="14647.3" y1="268.772" y2="13275.8" gradientUnits="userSpaceOnUse"><stop offset=".18" stop-color="#0052CC"/><stop offset="1" stop-color="#2684FF"/></linearGradient></defs></svg>
